X: 1
T: Joskvarnsleken 
T: the Jos Mill Tune
O: as taught by Roger Tallroth
R: waltz
Z: taught by Roger Tallroth at Ramblewood (199?)
Z: Brian Wilson?
M: 3/4
L: 1/8
K: A
"^A"|:\
"A"a3 bag | "E"a2 g2 eg | "D"g2 f2 d2 | "A"e2 c2 A2 | E6 | "(E)"E6 |\
"A"a3 bag | "E"a2 g2 eg | "D"g2 f2 d2 |[1 "E"e6 | e6 :|[2 "A"e6 | "E"e4 ||
"^B"|: cd |\
"A"e3 fed | c2 A2 ce | "E"B2 G2 Bd | "A"c2 AB cd |\
e3 fed | c2 A2 ce | "E"B2 G2 G2 | [1 "A"A4 :| [2 "A"A6 | A6 |]
P:B Alternative:
K:Amix
|: cd |\
"A"e3 fed | c2 A2 ce | "G"B2 G2 Bd | "A"c2 AB cd |\
"A"e3 fed | c2 A2 ce | "G"B2 G2 G2 |[1 "A"A4 cd :|[2 "A"A6 | A6 |]
%%text N.B. The 1st ending in the B part may also be "stretched" like the other cadences.
